Numix-Light/16x16/status/audio-volume-high-panel.svg

<?xml version="1.0" encoding="UTF-8" standalone="no"?>
<svg
   xmlns:dc="http://purl.org/dc/elements/1.1/"
   xmlns:cc="http://creativecommons.org/ns#"
   xmlns:rdf="http://www.w3.org/1999/02/22-rdf-syntax-ns#"
   xmlns:svg="http://www.w3.org/2000/svg"
   xmlns="http://www.w3.org/2000/svg"
   xmlns:sodipodi="http://sodipodi.sourceforge.net/DTD/sodipodi-0.dtd"
   xmlns:inkscape="http://www.inkscape.org/namespaces/inkscape"
   width="16"
   height="16"
   viewBox="0 0 16 16"
   id="svg2"
   version="1.1"
   inkscape:version="0.48.5 r10040"
   sodipodi:docname="audio-volume-high-panel.svg">
  <metadata
     id="metadata59">
    <rdf:RDF>
      <cc:Work
         rdf:about="">
        <dc:format>image/svg+xml</dc:format>
        <dc:type
           rdf:resource="http://purl.org/dc/dcmitype/StillImage" />
      </cc:Work>
    </rdf:RDF>
  </metadata>
  <sodipodi:namedview
     pagecolor="#ffffff"
     bordercolor="#666666"
     borderopacity="1"
     objecttolerance="10"
     gridtolerance="10"
     guidetolerance="10"
     inkscape:pageopacity="0"
     inkscape:pageshadow="2"
     inkscape:window-width="1280"
     inkscape:window-height="970"
     id="namedview57"
     showgrid="false"
     inkscape:zoom="20.85965"
     inkscape:cx="16.821985"
     inkscape:cy="14.814203"
     inkscape:window-x="0"
     inkscape:window-y="0"
     inkscape:window-maximized="1"
     inkscape:current-layer="svg2" />
  <defs
     id="defs4">
    <clipPath
       id="clip1">
      <rect
         width="16"
         height="16"
         id="rect7" />
    </clipPath>
    <clipPath
       id="clip2">
      <rect
         width="16"
         height="16"
         id="rect10" />
    </clipPath>
    <filter
       width="100%"
       x="0"
       y="0"
       height="100%"
       filterUnits="objectBoundingBox"
       id="alpha">
      <feColorMatrix
         values="0 0 0 0 1 0 0 0 0 1 0 0 0 0 1 0 0 0 1 0"
         in="SourceGraphic"
         type="matrix"
         id="feColorMatrix13" />
    </filter>
    <g
       style="clip-path:url(#clip1)"
       id="surface6"
       clip-path="url(#clip1)">
      <path
         style="fill:#000;stroke:#000;stroke-width:.674"
         d="M 3.862073 1022.748881 L 6.25673 1022.748881 C 6.859581 1022.748881 7.361957 1023.235186 7.361957 1023.858265 L 7.361957 1032.870117 C 7.361957 1033.477999 6.859581 1033.979501 6.25673 1033.979501 L 3.862073 1033.979501 C 3.242476 1033.979501 2.756847 1033.477999 2.756847 1032.870117 L 2.756847 1023.858265 C 2.756847 1023.235186 3.242476 1022.748881 3.862073 1022.748881 Z "
         transform="matrix(.23327 0 0 .25704 1.72801 -255.68425)"
         id="path16" />
      <path
         style="fill:#000;stroke:#000;stroke-linejoin:round;stroke-linecap:round;stroke-width:.491"
         d="M 6.893073 1023.26558 L 20.507454 1011.487866 L 20.507454 1026.426567 L 22.165294 1028.842898 L 20.507454 1030.666544 L 20.507454 1045.240516 L 6.842835 1033.857925 Z "
         transform="matrix(.23327 0 0 .25704 1.72801 -255.68425)"
         id="path18" />
    </g>
    <g
       style="clip-path:url(#clip2)"
       id="surface9"
       clip-path="url(#clip2)">
      <path
         style="fill:none;stroke:#000;stroke-linejoin:round;stroke-width:17.598"
         d="M 138.774829 -113.853362 C 157.326278 -95.124336 157.326278 -64.847661 138.774829 -46.176087 "
         transform="matrix(.06233 0 0 .06799 -.45406 14.16698)"
         id="path21" />
      <path
         style="fill:none;stroke:#000;stroke-linejoin:round;stroke-width:17.598"
         d="M 163.217617 -137.465722 C 194.617198 -105.69532 194.617198 -54.276677 163.217617 -22.563727 "
         transform="matrix(.06233 0 0 .06799 -.45406 14.16698)"
         id="path23" />
      <path
         style="fill:none;stroke:#000;stroke-linejoin:round;stroke-width:17.598"
         d="M 188.600512 -162.456905 C 233.725659 -116.898265 233.725659 -43.073733 188.600512 2.427457 "
         transform="matrix(.06233 0 0 .06799 -.45406 14.16698)"
         id="path25" />
    </g>
    <mask
       id="mask0">
      <g
         style="filter:url(#alpha)"
         id="g28">
        <rect
           width="16"
           x="0"
           y="0"
           height="16"
           style="fill:#000;fill-opacity:.302"
           id="rect30" />
      </g>
    </mask>
    <mask
       id="mask1">
      <g
         style="filter:url(#alpha)"
         id="g33">
        <rect
           width="16"
           x="0"
           y="0"
           height="16"
           style="fill:#000;fill-opacity:.302"
           id="rect35" />
      </g>
    </mask>
  </defs>
  <path
     sodipodi:nodetypes="cccccccc"
     d="m 6,4.0000007 -2.0000001,2 0,5.0000003 2.0000001,2 3.2e-6,-3.0030214 L 7.5000004,8.5000007 6,7.0000007 z"
     id="path3361"
     inkscape:connector-curvature="0"
     style="fill:#000000;fill-opacity:0.30196078" />
  <path
     sodipodi:nodetypes="ssssccs"
     d="M 1.7499995,6.0000007 C 1.3588707,6.0000007 1,6.4159228 1,6.8363157 l 0,3.3273703 c 0,0.483005 0.3266127,0.836315 0.7499995,0.836315 l 2.2500004,0 0,-5.0000003 z"
     id="path3363"
     inkscape:connector-curvature="0"
     style="fill:#000000;fill-opacity:0.30196078" />
  <path
     style="fill-opacity:0.30196288;fill:#000000"
     inkscape:connector-curvature="0"
     id="path3328"
     d="m 8.3640364,5.7502519 -0.736009,0.7492442 c 0.906162,0.9546835 0.906162,2.4169185 0,3.3756295 l 0.736009,0.7492444 c 1.436403,-1.5146024 1.436403,-3.3595159 0,-4.8741181 z" />
  <path
     style="fill:#000000;fill-opacity:0.30196288"
     inkscape:connector-curvature="0"
     id="path3330"
     d="m 9.4680484,5.3716009 c 1.4918006,1.522659 1.4918006,4.4793557 0,6.0020151 l 1.1040116,1.123866 c 2.136798,-2.179255 2.136798,-6.0704929 0,-8.2497484 z" />
  <path
     style="fill:#000000;fill-opacity:0.30196288"
     inkscape:connector-curvature="0"
     id="path3332"
     d="m 11.308068,3.8731115 c 2.623513,2.5297079 2.583942,6.4692855 0,8.9989935 L 12.41208,14 c 3.430747,-3.37563 3.470317,-7.875126 0,-11.2507548 z" />
  <path
     style="fill:#353535;fill-opacity:1"
     inkscape:connector-curvature="0"
     id="path3334"
     d="m 8.3640364,4.9969788 -0.736009,0.7532731 c 0.906162,0.9546825 0.906162,2.4169184 0,3.3716007 l 0.736009,0.753273 c 1.436403,-1.5186298 1.436403,-3.3595167 0,-4.8781468 z" />
  <path
     style="fill:#353535;fill-opacity:1"
     inkscape:connector-curvature="0"
     id="path3336"
     d="m 9.4680484,4.6223567 c 1.4918006,1.522658 1.4918006,4.4793549 0,6.0020133 l 1.1040116,1.123868 c 2.136798,-2.1792554 2.136798,-6.0704941 0,-8.2497486 z" />
  <path
     style="fill:#353535;fill-opacity:1"
     inkscape:connector-curvature="0"
     id="path3338"
     d="m 11.308068,3.1238673 c 2.623513,2.5297079 2.583942,6.4692843 0,8.9989927 l 1.104012,1.123867 C 15.842827,9.8751256 15.882397,5.3716009 12.41208,2 z" />
  <path
     style="fill:#353535;fill-opacity:1"
     inkscape:connector-curvature="0"
     id="path3342"
     d="m 6,3.0000007 -2.0000001,2 0,5.0000003 2.0000001,2 3.2e-6,-3.0030214 L 7.5000004,7.5000007 6,6.0000007 z"
     sodipodi:nodetypes="cccccccc" />
  <path
     style="fill:#353535;fill-opacity:1"
     inkscape:connector-curvature="0"
     id="path3344"
     d="M 1.7499995,5.0000007 C 1.3588707,5.0000007 1,5.4159228 1,5.8363157 l 0,3.3273699 c 0,0.483005 0.3266127,0.8363154 0.7499995,0.8363154 l 2.2500004,0 0,-5.0000003 z"
     sodipodi:nodetypes="ssssccs" />
</svg>

<?xml version="1.0" encoding="UTF-8" standalone="no"?>
<svg
   xmlns:dc="http://purl.org/dc/elements/1.1/"
   xmlns:cc="http://creativecommons.org/ns#"
   xmlns:rdf="http://www.w3.org/1999/02/22-rdf-syntax-ns#"
   xmlns:svg="http://www.w3.org/2000/svg"
   xmlns="http://www.w3.org/2000/svg"
   xmlns:sodipodi="http://sodipodi.sourceforge.net/DTD/sodipodi-0.dtd"
   xmlns:inkscape="http://www.inkscape.org/namespaces/inkscape"
   width="16"
   height="16"
   viewBox="0 0 16 16"
   id="svg2"
   version="1.1"
   inkscape:version="0.48.5 r10040"
   sodipodi:docname="audio-volume-high-panel.svg">
  <metadata
     id="metadata59">
    <rdf:RDF>
      <cc:Work
         rdf:about="">
        <dc:format>image/svg+xml</dc:format>
        <dc:type
           rdf:resource="http://purl.org/dc/dcmitype/StillImage" />
      </cc:Work>
    </rdf:RDF>
  </metadata>
  <sodipodi:namedview
     pagecolor="#ffffff"
     bordercolor="#666666"
     borderopacity="1"
     objecttolerance="10"
     gridtolerance="10"
     guidetolerance="10"
     inkscape:pageopacity="0"
     inkscape:pageshadow="2"
     inkscape:window-width="1280"
     inkscape:window-height="970"
     id="namedview57"
     showgrid="true"
     showguides="true"
     inkscape:guide-bbox="true"
     inkscape:zoom="14.75"
     inkscape:cx="0.35511519"
     inkscape:cy="17.522171"
     inkscape:window-x="0"
     inkscape:window-y="0"
     inkscape:window-maximized="1"
     inkscape:current-layer="svg2">
    <inkscape:grid
       type="xygrid"
       id="grid3561" />
  </sodipodi:namedview>
  <defs
     id="defs4">
    <clipPath
       id="clip1">
      <rect
         width="16"
         height="16"
         id="rect7" />
    </clipPath>
    <clipPath
       id="clip2">
      <rect
         width="16"
         height="16"
         id="rect10" />
    </clipPath>
    <filter
       width="100%"
       x="0"
       y="0"
       height="100%"
       filterUnits="objectBoundingBox"
       id="alpha">
      <feColorMatrix
         values="0 0 0 0 1 0 0 0 0 1 0 0 0 0 1 0 0 0 1 0"
         in="SourceGraphic"
         type="matrix"
         id="feColorMatrix13" />
    </filter>
    <g
       style="clip-path:url(#clip1)"
       id="surface6"
       clip-path="url(#clip1)">
      <path
         style="fill:#000;stroke:#000;stroke-width:.674"
         d="M 3.862073 1022.748881 L 6.25673 1022.748881 C 6.859581 1022.748881 7.361957 1023.235186 7.361957 1023.858265 L 7.361957 1032.870117 C 7.361957 1033.477999 6.859581 1033.979501 6.25673 1033.979501 L 3.862073 1033.979501 C 3.242476 1033.979501 2.756847 1033.477999 2.756847 1032.870117 L 2.756847 1023.858265 C 2.756847 1023.235186 3.242476 1022.748881 3.862073 1022.748881 Z "
         transform="matrix(.23327 0 0 .25704 1.72801 -255.68425)"
         id="path16" />
      <path
         style="fill:#000;stroke:#000;stroke-linejoin:round;stroke-linecap:round;stroke-width:.491"
         d="M 6.893073 1023.26558 L 20.507454 1011.487866 L 20.507454 1026.426567 L 22.165294 1028.842898 L 20.507454 1030.666544 L 20.507454 1045.240516 L 6.842835 1033.857925 Z "
         transform="matrix(.23327 0 0 .25704 1.72801 -255.68425)"
         id="path18" />
    </g>
    <g
       style="clip-path:url(#clip2)"
       id="surface9"
       clip-path="url(#clip2)">
      <path
         style="fill:none;stroke:#000;stroke-linejoin:round;stroke-width:17.598"
         d="M 138.774829 -113.853362 C 157.326278 -95.124336 157.326278 -64.847661 138.774829 -46.176087 "
         transform="matrix(.06233 0 0 .06799 -.45406 14.16698)"
         id="path21" />
      <path
         style="fill:none;stroke:#000;stroke-linejoin:round;stroke-width:17.598"
         d="M 163.217617 -137.465722 C 194.617198 -105.69532 194.617198 -54.276677 163.217617 -22.563727 "
         transform="matrix(.06233 0 0 .06799 -.45406 14.16698)"
         id="path23" />
      <path
         style="fill:none;stroke:#000;stroke-linejoin:round;stroke-width:17.598"
         d="M 188.600512 -162.456905 C 233.725659 -116.898265 233.725659 -43.073733 188.600512 2.427457 "
         transform="matrix(.06233 0 0 .06799 -.45406 14.16698)"
         id="path25" />
    </g>
    <mask
       id="mask0">
      <g
         style="filter:url(#alpha)"
         id="g28">
        <rect
           width="16"
           x="0"
           y="0"
           height="16"
           style="fill:#000;fill-opacity:.302"
           id="rect30" />
      </g>
    </mask>
    <mask
       id="mask1">
      <g
         style="filter:url(#alpha)"
         id="g33">
        <rect
           width="16"
           x="0"
           y="0"
           height="16"
           style="fill:#000;fill-opacity:.302"
           id="rect35" />
      </g>
    </mask>
  </defs>
  <path
     sodipodi:nodetypes="cccccccc"
     d="m 6,4.0000009 -2,2 0,5.0000001 2,2 3.2e-6,-3.0030213 L 7.5,8.5000009 l -1.5,-1.5 z"
     id="path3361"
     inkscape:connector-curvature="0"
     style="fill:#000000;fill-opacity:0.30196078" />
  <path
     sodipodi:nodetypes="ssssccs"
     d="M 1.7499995,6.0000009 C 1.3588707,6.0000009 1,6.415923 1,6.8363159 l 0,3.3273701 c 0,0.483005 0.3266127,0.836315 0.7499995,0.836315 L 4,11.000001 4,6.0000009 z"
     id="path3363"
     inkscape:connector-curvature="0"
     style="fill:#000000;fill-opacity:0.30196078" />
  <path
     style="fill-opacity:0.3019608;fill:#000000"
     inkscape:connector-curvature="0"
     id="path3328"
     d="M 8.3640364,5.7502521 7.6280279,6.4994963 c 0.9061611,0.9546835 0.9061611,2.4169184 0,3.3756298 L 8.3640364,10.62437 c 1.4364029,-1.5146019 1.4364029,-3.3595157 0,-4.8741179 z" />
  <path
     style="fill-opacity:0.3019608;fill:#000000"
     inkscape:connector-curvature="0"
     id="path3330"
     d="m 9.4680486,5.3716011 c 1.4918004,1.522659 1.4918004,4.4793553 0,6.0020149 l 1.1040114,1.123866 c 2.136798,-2.179255 2.136798,-6.0704927 0,-8.2497482 z" />
  <path
     style="fill-opacity:0.3019608;fill:#000000"
     inkscape:connector-curvature="0"
     id="path3332"
     d="m 11.308068,3.8731116 c 2.623513,2.529708 2.583942,6.4692854 0,8.9989934 L 12.41208,14 c 3.430747,-3.37563 3.470317,-7.8751258 0,-11.2507546 z" />
  <path
     style="fill:#353535;fill-opacity:1"
     inkscape:connector-curvature="0"
     id="path3334"
     d="M 8.3640364,4.996979 7.6280279,5.7502521 c 0.9061611,0.9546825 0.9061611,2.4169184 0,3.3716009 l 0.7360085,0.7532731 c 1.4364029,-1.5186301 1.4364029,-3.359517 0,-4.8781471 z" />
  <path
     style="fill:#353535;fill-opacity:1"
     inkscape:connector-curvature="0"
     id="path3336"
     d="m 9.4680486,4.6223569 c 1.4918004,1.522658 1.4918004,4.4793553 0,6.0020131 l 1.1040114,1.123868 c 2.136798,-2.1792549 2.136798,-6.0704939 0,-8.2497485 z" />
  <path
     style="fill:#353535;fill-opacity:1"
     inkscape:connector-curvature="0"
     id="path3338"
     d="m 11.308068,3.1238674 c 2.623513,2.529708 2.583942,6.4692844 0,8.9989926 l 1.104012,1.123867 c 3.430747,-3.3716009 3.470317,-7.8751259 0,-11.2467268 z" />
  <path
     style="fill:#353535"
     inkscape:connector-curvature="0"
     id="path3342"
     d="m 6,3.0000008 -2,2.0000001 0,5.0000001 2,2 3.2e-6,-3.0030213 L 7.5,7.5000009 l -1.5,-1.5 z"
     sodipodi:nodetypes="cccccccc" />
  <path
     style="fill:#353535"
     inkscape:connector-curvature="0"
     id="path3344"
     d="M 1.7499995,5.0000009 C 1.3588707,5.0000009 1,5.415923 1,5.8363159 l 0,3.32737 C 1,9.6466912 1.3266127,10.000001 1.7499995,10.000001 L 4,10.000001 4,5.0000009 z"
     sodipodi:nodetypes="ssssccs" />
</svg>
